img/icon-insta.svg

<svg fill="none" height="21" viewBox="0 0 21 21" width="21" xmlns="http://www.w3.org/2000/svg"><path clip-rule="evenodd" d="m3 0h15c1.65 0 3 1.35 3 3v15c0 1.65-1.35 3-3 3h-15c-1.65 0-3-1.35-3-3v-15c0-1.65 1.35-3 3-3zm11 10.5c0-1.93-1.57-3.5-3.5-3.5s-3.5 1.57-3.5 3.5 1.57 3.5 3.5 3.5 3.5-1.57 3.5-3.5zm-11 7.5v-9h1.181c-.1184.49127-.17914.99467-.181 1.5 0 3.5899 2.91015 6.5 6.5 6.5 3.5899 0 6.5-2.9101 6.5-6.5-.0014-.50536-.0621-1.00882-.181-1.5h1.181v9zm11-11h4v-4h-4z" fill="#fff" fill-rule="evenodd"/></svg>

<svg width="21" height="21" viewBox="0 0 21 21" fill="none" xmlns="http://www.w3.org/2000/svg">
<path fill-rule="evenodd" clip-rule="evenodd" d="M3 0H18C19.65 0 21 1.35 21 3V18C21 19.65 19.65 21 18 21H3C1.35 21 0 19.65 0 18V3C0 1.35 1.35 0 3 0ZM14 10.5C14 8.57 12.43 7 10.5 7C8.57 7 7 8.57 7 10.5C7 12.43 8.57 14 10.5 14C12.43 14 14 12.43 14 10.5ZM3 18V9H4.181C4.0626 9.49127 4.00186 9.99467 4 10.5C4 14.0899 6.91015 17 10.5 17C14.0899 17 17 14.0899 17 10.5C16.9986 9.99464 16.9379 9.49118 16.819 9H18V18H3ZM14 7H18V3H14V7Z" fill="white"/>
</svg>
